flaticon/essential/pause.svg

<svg xmlns="http://www.w3.org/2000/svg" width="32" height="32" viewBox="0 0 24 24">
    <path d="M8.285156 0C7.96875 0 7.714844.253906 7.714844.570312L7.714844 23.429688C7.714844 23.746094 7.96875 24 8.285156 24 8.601562 24 8.855469 23.746094 8.855469 23.429688L8.855469.570312C8.855469.253906 8.601562 0 8.285156 0zM15.714844 0C15.398438 0 15.144531.253906 15.144531.570312L15.144531 23.429688C15.144531 23.746094 15.398438 24 15.714844 24 16.03125 24 16.285156 23.746094 16.285156 23.429688L16.285156.570312C16.285156.253906 16.03125 0 15.714844 0zM15.714844 0"/>
</svg>

<svg xmlns="http://www.w3.org/2000/svg" width="32" height="32" viewBox="0 0 24 24">
    <path d="M8.285 0a.568.568 0 0 0-.57.57v22.86c0 .316.254.57.57.57.317 0 .57-.254.57-.57V.57a.568.568 0 0 0-.57-.57zm0 0M15.715 0a.568.568 0 0 0-.57.57v22.86c0 .316.253.57.57.57.316 0 .57-.254.57-.57V.57a.568.568 0 0 0-.57-.57zm0 0"/>
</svg>
